X:144
U: ~ = !turn!
%%topmargin 3cm
T:New Policeman
B:Traditional Irish Fiddle Tunes. Randy Miller and Jack Perron.
Z:Transcribed by Ralph Palmer
S:Seamus Tansey
R:Reel
L:1/8
M:C|
K:D
DA, ~A,2 DEFA | defe dB PB2 | BAFA AB{/c}BA | FEDE FE E2 |
DA, ~A,2 DEFA | defe dB PB2 | ~d2 B ABdB | AFEG FE D2 ::
~a3 b afdf | ((3gfe) fd cd e2 | ((3gbg) ef gbag | Pf2 gf e2 |
dB ~B2 AF ~F2 | DF ~F2 ABde | Pf2 ec dBAF | GFEG FE D2 :|]
